X: 12353
T: Falls Of Foyers
R: reel
M: 4/4
K: Amixolydian
|:A/A/A) ce fece|Acec dBBd|cAce fece|e2 Bd cAAa:|
aece fece|aece fBB2|aece fece|e2 Bd cAA2|
aece fece|aece fBBg|afge fdec|d2 B/c/d cAAe||

